public/images/icons/32x32/enseignement-moral-et-civique_32_white.svg

<svg height="32" viewBox="0 0 32 32" width="32" xmlns="http://www.w3.org/2000/svg"><g fill="#fff" transform="translate(4 6.875)"><path d="m4.35657895 14.0641232c-.32522369 0-.62638487-.2016161-.72643421-.5150796-.12259211-.3845507.10308881-.7914223.50429934-.9090924 3.39559868-.9944942 6.83400332-1.2989807 10.47149342-.9236495l-3.0696151-7.50735176c-.7494836-1.83249936-6.79195727-.82878563-8.77774674-.49955199-.17476974.02911425-.33484869.05555969-.47745066.07860847-.41210197.06502182-.80596711-.20088832-.87536842-.59732734-.06940132-.39643903.20972368-.77201284.62359868-.83849038l.46959869-.07715276c3.00249342-.49858151 9.25063815-1.53626187 10.45249675 1.40306419l3.5382006 8.65275477c.0990362.2421335.0554704.5165353-.1139802.7196072-.1691974.2030719-.4369244.3064275-.7074375.2654249-3.8902731-.5643312-7.51737834-.3302041-11.08875992.7162106-.0744671.021593-.1491875.0320256-.22289473.0320256z"/><path d="m11.8782632 16.6744583c-.2758323 0-.5362139-.1443582-.6704573-.3857638-.1643848-.2957523-.0970098-.6606509.163625-.8843453l3.9036974-3.3503222c.3120526-.2680938.792796-.2428614 1.0729342.0562875.2798849.2993915.2537961.7596393-.0587632 1.027733l-1.8449605 1.5833299c1.2889901-.1742002 2.5853257-.2525661 3.8798882-.238009 1.2621414.0150424 2.5599967.1220372 3.872796.3183158l-2.6896809-7.64079203c-.2173224-.61673684-1.3695362-1.58332991-6.6364375-1.12720668-.4153947.03517972-.787477-.25887419-.8254704-.65943774-.0374868-.40032092.2705132-.75430167.6884408-.79069448 3.1116612-.26833633 7.3486875-.34379075 8.2136711 2.11199615l3.0995032 8.80608988c.0868783.246258.0296349.5182336-.149694.7132991-.1795823.1948228-.4536415.2833787-.720102.2326714-1.6557533-.3183158-3.2952961-.4896047-4.8725296-.5085289-2.1197796-.0276586-4.1587599.2071964-6.2395329.7128138-.0623092.0150424-.125125.0225636-.1869276.0225636z"/><path d="m11.8782632 16.6747009c-.2960954 0-.5772468-.1669217-.7000921-.4444775l-1.60002965-3.6213274c-.163625-.3699936.01697039-.7972452.40374342-.9539769.38500003-.1560038.83205593.0160129.99593423.3867343l1.6000296 3.6213273c.163625.3699936-.0169704.7972452-.4037434.9539769-.09625.038819-.196806.0577433-.2958421.0577433zm-6.07413491 3.1501617c-.33991447 0-.64943421-.2200552-.7363125-.5502593l-4.81579276-18.29879072c-.10258224-.3896457.14412171-.78535687.55115789-.88361746.40754276-.09777535.82015132.13805007.92273355.52793838l4.81579277 18.2987908c.10258223.3896457-.14412171.7853568-.5511579.88386-.0625625.0147998-.125125.0220783-.18642105.0220783z"/></g></svg>

<?xml version="1.0" encoding="UTF-8"?>
<svg width="32px" height="32px" viewBox="0 0 32 32" version="1.1" xmlns="http://www.w3.org/2000/svg" xmlns:xlink="http://www.w3.org/1999/xlink">
    <title>icone/32x32/civique_32_white</title>
    <g id="icone/32x32/civique_32_white" stroke="none" stroke-width="1" fill="none" fill-rule="evenodd">
        <g id="noun_Flag_25841-Copy" transform="translate(4.000000, 6.000000)" fill="#FFFFFF" fill-rule="nonzero">
            <g id="Group" transform="translate(0.000000, 0.875208)">
                <path d="M4.35657895,14.0641232 C4.03135526,14.0641232 3.73019408,13.8625071 3.63014474,13.5490436 C3.50755263,13.1644929 3.73323355,12.7576213 4.13444408,12.6399512 C7.53004276,11.645457 10.9684474,11.3409705 14.6059375,11.7163017 L11.5363224,4.20894994 C10.7868388,2.37645058 4.74436513,3.38016431 2.75857566,3.70939795 C2.58380592,3.7385122 2.42372697,3.76495764 2.281125,3.78800642 C1.86902303,3.85302824 1.47515789,3.5871181 1.40575658,3.19067908 C1.33635526,2.79424005 1.61548026,2.41866624 2.02935526,2.3521887 L2.49895395,2.27503594 C5.50144737,1.77645443 11.7495921,0.738774069 12.9514507,3.67810013 L16.4896513,12.3308549 C16.5886875,12.5729884 16.5451217,12.8473902 16.3756711,13.0504621 C16.2064737,13.253534 15.9387467,13.3568896 15.6682336,13.315887 C11.7779605,12.7515558 8.15085526,12.9856829 4.57947368,14.0320976 C4.50500658,14.0536906 4.43028618,14.0641232 4.35657895,14.0641232 Z" id="Path"></path>
                <path d="M11.8782632,16.6744583 C11.6024309,16.6744583 11.3420493,16.5301001 11.2078059,16.2886945 C11.0434211,15.9929422 11.1107961,15.6280436 11.3714309,15.4043492 L15.2751283,12.054027 C15.5871809,11.7859332 16.0679243,11.8111656 16.3480625,12.1103145 C16.6279474,12.409706 16.6018586,12.8699538 16.2892993,13.1380475 L14.4443388,14.7213774 C15.7333289,14.5471772 17.0296645,14.4688113 18.324227,14.4833684 C19.5863684,14.4984108 20.8842237,14.6054056 22.197023,14.8016842 L19.5073421,7.16089217 C19.2900197,6.54415533 18.1378059,5.57756226 12.8709046,6.03368549 C12.4555099,6.06886521 12.0834276,5.7748113 12.0454342,5.37424775 C12.0079474,4.97392683 12.3159474,4.61994608 12.733875,4.58355327 C15.8455362,4.31521694 20.0825625,4.23976252 20.9475461,6.69554942 L24.0470493,15.5016393 C24.1339276,15.7478973 24.0766842,16.0198729 23.8973553,16.2149384 C23.717773,16.4097612 23.4437138,16.4983171 23.1772533,16.4476098 C21.5215,16.129294 19.8819572,15.9580051 18.3047237,15.9390809 C16.1849441,15.9114223 14.1459638,16.1462773 12.0651908,16.6518947 C12.0028816,16.6669371 11.9400658,16.6744583 11.8782632,16.6744583 Z" id="Path"></path>
                <path d="M11.8782632,16.6747009 C11.5821678,16.6747009 11.3010164,16.5077792 11.1781711,16.2302234 L9.57814145,12.608896 C9.41451645,12.2389024 9.59511184,11.8116508 9.98188487,11.6549191 C10.3668849,11.4989153 10.8139408,11.670932 10.9778191,12.0416534 L12.5778487,15.6629807 C12.7414737,16.0329743 12.5608783,16.4602259 12.1741053,16.6169576 C12.0778553,16.6557766 11.9772993,16.6747009 11.8782632,16.6747009 Z" id="Path"></path>
                <path d="M5.80412829,19.8248626 C5.46421382,19.8248626 5.15469408,19.6048074 5.06781579,19.2746033 L0.252023026,0.97581258 C0.149440789,0.586166881 0.396144737,0.190455712 0.803180921,0.092195122 C1.21072368,-0.00558023107 1.62333224,0.230245186 1.72591447,0.620133504 L6.54170724,18.9189243 C6.64428947,19.30857 6.39758553,19.7042811 5.99054934,19.8027843 C5.92798684,19.8175841 5.86542434,19.8248626 5.80412829,19.8248626 Z" id="Path"></path>
            </g>
        </g>
    </g>
</svg>
